public/Avatar.svg

<svg width="50" height="50" viewBox="0 0 50 50" fill="none" xmlns="http://www.w3.org/2000/svg">
<path d="M25.0007 23.3333C27.3082 23.3333 29.5637 22.6492 31.4823 21.3672C33.4008 20.0852 34.8961 18.2632 35.7793 16.1313C36.6623 13.9995 36.8933 11.6537 36.4431 9.39062C35.993 7.1275 34.8818 5.0487 33.2501 3.4171C31.6186 1.78548 29.5398 0.674338 27.2767 0.224177C25.0137 -0.225983 22.6678 0.00505477 20.536 0.888077C18.4042 1.7711 16.5821 3.26645 15.3002 5.18502C14.0182 7.1036 13.334 9.35922 13.334 11.6667C13.334 14.7609 14.5632 17.7283 16.7511 19.9162C18.939 22.1042 21.9065 23.3333 25.0007 23.3333ZM25.0007 3.33333C26.6488 3.33333 28.26 3.82208 29.6305 4.73775C31.0008 5.65343 32.069 6.95493 32.6997 8.47765C33.3303 10.0004 33.4955 11.6759 33.1738 13.2924C32.8523 14.9089 32.0586 16.3938 30.8931 17.5592C29.7278 18.7247 28.243 19.5183 26.6265 19.8398C25.0098 20.1615 23.3343 19.9963 21.8117 19.3657C20.289 18.735 18.9874 17.6668 18.0717 16.2964C17.1561 14.926 16.6673 13.3148 16.6673 11.6667C16.6673 9.45653 17.5453 7.33692 19.1081 5.77412C20.6708 4.21132 22.7905 3.33333 25.0007 3.33333Z" fill="#1096E1"/>
<path d="M45.784 35.6157C43.1111 32.7909 39.8903 30.5405 36.3182 29.0029C32.7462 27.465 28.898 26.6719 25.009 26.6719C21.12 26.6719 17.2718 27.465 13.6998 29.0029C10.1277 30.5405 6.9068 32.7909 4.23399 35.6157C3.65451 36.2347 3.33267 37.0512 3.33399 37.899V46.6657C3.33399 47.5499 3.68518 48.3977 4.3103 49.0229C4.93542 49.6479 5.78327 49.999 6.66732 49.999H43.334C44.218 49.999 45.0658 49.6479 45.691 49.0229C46.3161 48.3977 46.6673 47.5499 46.6673 46.6657V37.899C46.6732 37.0535 46.3573 36.2374 45.784 35.6157ZM43.334 46.6657H6.66732V37.8824C9.02937 35.3952 11.8728 33.4147 15.0246 32.0612C18.1764 30.7079 21.5707 30.0099 25.0007 30.0099C28.4308 30.0099 31.825 30.7079 34.9766 32.0612C38.1285 33.4147 40.972 35.3952 43.334 37.8824V46.6657Z" fill="#1096E1"/>
</svg>

<svg xmlns="http://www.w3.org/2000/svg" width="50" height="50" fill="#1096e1" xmlns:v="https://vecta.io/nano"><path d="M25.001 23.333c2.308 0 4.563-.684 6.482-1.966A11.67 11.67 0 0 0 36.444 9.39c-.45-2.263-1.561-4.342-3.193-5.974S29.54.674 27.277.224a11.67 11.67 0 0 0-6.741.664c-2.132.883-3.954 2.378-5.236 4.297s-1.966 4.174-1.966 6.482a11.67 11.67 0 0 0 3.417 8.25c2.188 2.188 5.155 3.417 8.25 3.417zm0-20a8.34 8.34 0 0 1 4.63 1.404 8.32 8.32 0 0 1 3.069 3.74c.63 1.523.796 3.198.474 4.815s-1.115 3.101-2.281 4.267a8.33 8.33 0 0 1-9.082 1.807 8.34 8.34 0 0 1-3.74-3.069 8.33 8.33 0 0 1-1.404-4.63c0-2.21.878-4.33 2.441-5.893s3.682-2.441 5.893-2.441zm20.783 32.283a28.6 28.6 0 0 0-41.55 0 3.34 3.34 0 0 0-.9 2.283v8.767c0 .884.351 1.732.976 2.357s1.473.976 2.357.976h36.667c.884 0 1.732-.351 2.357-.976s.976-1.473.976-2.357v-8.767a3.33 3.33 0 0 0-.883-2.283zm-2.45 11.05H6.667v-8.783c2.362-2.487 5.205-4.468 8.357-5.821a25.29 25.29 0 0 1 19.952 0c3.152 1.353 5.995 3.334 8.357 5.821v8.783z"/></svg>
